usr/share/icons/biglinux-icons-material-dark/22/actions/preview-remove-zone.svg

<svg xmlns="http://www.w3.org/2000/svg" viewBox="0 0 22 22">
  <defs id="defs3051">
    <style type="text/css" id="current-color-scheme">
      .ColorScheme-Text {
        color:#dedede;
      }
      </style>
  </defs>
 <path 
     style="fill:currentColor;fill-opacity:1;stroke:none" 
     d="M7 11l-3 3 3 3 0-6zM15 11l0 6 3-3-3-3zM6.0234375 4.9941406L6.0234375 8.9941406 5.0234375 8.9941406 5.0234375 6.9941406 4.0234375 6.9941406 4.0234375 8.9941406 3.0234375 8.9941406 3.0234375 9.9941406 19.023438 9.9941406 19.023438 8.9941406 19 8.9941406 19 7 18 7 18 8.9941406 17.023438 8.9941406 17.023438 4.9941406 16.023438 4.9941406 16.023438 8.9941406 15.023438 8.9941406 15.023438 6.9941406 14.023438 6.9941406 14.023438 8.9941406 13.023438 8.9941406 13.023438 6.9941406 12.023438 6.9941406 12.023438 8.9941406 11.023438 8.9941406 11.023438 6.9941406 10.023438 6.9941406 10.023438 8.9941406 9.0234375 8.9941406 9.0234375 6.9941406 8.0234375 6.9941406 8.0234375 8.9941406 7.0234375 8.9941406 7.0234375 4.9941406 6.0234375 4.9941406z"
	 class="ColorScheme-Text"
     />
 <path 
     style="fill:currentColor;fill-opacity:1;stroke:none" 
     d="M3 11H4V17H3zM18 11H19V17H18z"
	 class="ColorScheme-Text"
     />
 <path 
     style="fill:#d24d57"
     d="M 9.207,11.5 8.5,12.207 10.293,14 8.5,15.793 9.207,16.5 11,14.707 12.793,16.5 13.5,15.793 11.707,14 13.5,12.207 12.793,11.5 11,13.293 9.207,11.5 Z"
     />
</svg>

<svg xmlns="http://www.w3.org/2000/svg" viewBox="0 0 22 22">
<defs id="defs3051">
<style id="current-color-scheme" type="text/css">
.ColorScheme-Text{color:#dedede}
</style>
</defs>
<path d="m7 11-3 3 3 3zm8 0v6l3-3zM6.023 4.994v4h-1v-2h-1v2h-1v1h16v-1H19V7h-1v1.994h-.977v-4h-1v4h-1v-2h-1v2h-1v-2h-1v2h-1v-2h-1v2h-1v-2h-1v2h-1v-4zM3 11h1v6H3zm15 0h1v6h-1z" class="ColorScheme-Text" style="fill:currentColor;fill-opacity:1;stroke:none"/>
<path d="m9.207 11.5-.707.707L10.293 14 8.5 15.793l.707.707L11 14.707l1.793 1.793.707-.707L11.707 14l1.793-1.793-.707-.707L11 13.293z" style="fill:#d24d57"/>
</svg>
